src/images/icons/home.svg

<svg xmlns="http://www.w3.org/2000/svg" width="24" height="24" viewBox="0 0 24 24"><path id="outline" fill-rule="nonzero" d="M12.6128994,2.12391817 L12.7071068,2.20710678 L21,10.5 L21,21 C21,21.5128358 20.6139598,21.9355072 20.1166211,21.9932723 L20,22 L13,22 L13,18 L11,18 L11,22 L4,22 C3.48716416,22 3.06449284,21.6139598 3.00672773,21.1166211 L3,21 L3,10.5 L11.2928932,2.20710678 C11.6533772,1.84662282 12.2206082,1.81889328 12.6128994,2.12391817 Z M12,4.329 L5,11.328 L5,20 L9,20 L9,16 L15,16 L15,20 L19,20 L19,11.329 L12,4.329 Z"/><polygon id="fill" fill-rule="nonzero" points="12 4.329 5 11.328 5 20 9 20 9 16 15 16 15 20 19 20 19 11.329"/></svg>

<svg xmlns="http://www.w3.org/2000/svg" width="24" height="24"><path id="outline" fill-rule="nonzero" d="M11.293 2.207a1 1 0 011.32-.083l.094.083L21 10.5V21a1 1 0 01-.883.993L20 22h-7v-4h-2v4H4a1 1 0 01-.993-.883L3 21V10.5l8.293-8.293z"/><path id="fill" fill-rule="nonzero" d="M12 4.329l-7 6.999V20h4v-4h6v4h4v-8.671z"/></svg>
